imgs/tele-icon.svg

<svg xmlns="http://www.w3.org/2000/svg" width="48" height="48" viewBox="0 0 48 48"><path fill="#fff" d="M24.001 47.998c-13.253 0-23.997-10.743-23.997-23.997 0-13.253 10.744-23.997 23.997-23.997 13.254 0 23.998 10.744 23.998 23.997 0 13.254-10.744 23.997-23.998 23.997zm0-2.998c11.578 0 20.999-9.421 20.999-20.999s-9.421-20.999-20.999-20.999-20.998 9.421-20.998 20.999 9.42 20.999 20.998 20.999"/><path fill="#fff" d="M23.099 15.699l-.001.005c0 .003-2.329 1.39-2.329 1.39l-4.991-8.538 2.329-1.396c.504-.298 1.154-.14 1.455.377l3.913 6.681-.001.006c.285.49.158 1.154-.375 1.475zm12.378 21.164l-.006.002c.001.003-2.327 1.392-2.327 1.392l-4.883-8.354 2.328-1.395c.506-.298 1.154-.138 1.456.377l3.804 6.493-.001.005c.285.495.163 1.161-.371 1.48zm-18.445-9.563c-6.854-12.058-3.191-17.38-1.897-18.36l4.997 8.533c-1.204.72-.626 2.34.089 3.925.012.075 3.474 5.972 3.505 5.992 1.79 2.455 2.76 3.584 3.909 2.898l4.871 8.33c-1.378.861-8.251 1.391-15.474-11.318z"/></svg>

<?xml version="1.0" encoding="utf-8"?>
<!-- Generator: Adobe Illustrator 16.0.0, SVG Export Plug-In . SVG Version: 6.00 Build 0)  -->
<!DOCTYPE svg PUBLIC "-//W3C//DTD SVG 1.1//EN" "http://www.w3.org/Graphics/SVG/1.1/DTD/svg11.dtd">
<svg version="1.1" id="图层_1" xmlns="http://www.w3.org/2000/svg" xmlns:xlink="http://www.w3.org/1999/xlink" x="0px" y="0px"
	 width="48px" height="48px" viewBox="0 0 48 48" enable-background="new 0 0 48 48" xml:space="preserve">
<path fill="#FFFFFF" d="M24.001,47.998c-13.253,0-23.997-10.743-23.997-23.997c0-13.253,10.744-23.997,23.997-23.997
	c13.254,0,23.998,10.744,23.998,23.997C47.999,37.255,37.255,47.998,24.001,47.998z M24.001,45C35.579,45,45,35.579,45,24.001
	c0-11.578-9.421-20.999-20.999-20.999c-11.578,0-20.998,9.421-20.998,20.999C3.003,35.579,12.423,45,24.001,45"/>
<path fill="#FFFFFF" d="M23.099,15.699l-0.001,0.005c0,0.003-2.329,1.39-2.329,1.39l-4.991-8.538l2.329-1.396
	c0.504-0.298,1.154-0.14,1.455,0.377c0.001,0.001,3.913,6.681,3.913,6.681l-0.001,0.006C23.759,14.714,23.632,15.378,23.099,15.699z
	 M35.477,36.863l-0.006,0.002c0.001,0.003-2.327,1.392-2.327,1.392l-4.883-8.354l2.328-1.395c0.506-0.298,1.154-0.138,1.456,0.377
	c0.001,0.003,3.804,6.493,3.804,6.493l-0.001,0.005C36.133,35.878,36.011,36.544,35.477,36.863z M17.032,27.3
	c-6.854-12.058-3.191-17.38-1.897-18.36l4.997,8.533c-1.204,0.72-0.626,2.34,0.089,3.925c0.012,0.075,3.474,5.972,3.505,5.992
	c1.79,2.455,2.76,3.584,3.909,2.898l4.871,8.33C31.128,39.479,24.255,40.009,17.032,27.3z"/>
</svg>
